X:10684
T:Merlot - bourree
C:Gilles Chabenat
Z:abc transcription Simon Wascher
N:please mail errors to: simon.wascher@chello.at
M:2/4
L:1/8
K:G
B3/2A/2 GB|cB Ad|de dc|BA GA|
B3/2A/2 GB|cB Ad|de dc|B2 A2:|
|:B3/2c/2 dG|Ad ^FG|Gd cB|AG Ad|
B3/2c/2 dG|AG FE|EF GA|1Bc/2B/2 AG:|2B2 A2|]
